assets/typescript.svg

<svg width="100" height="100" viewBox="0 0 100 100" fill="none" xmlns="http://www.w3.org/2000/svg">
<path d="M0 50V100H50H100V50V0H50H0V50Z" fill="#007ACC"/>
<path d="M22.1132 50.3318L22.0815 54.427L28.5894 54.427H35.0974V72.9191V91.4111H39.7005H44.3037V72.9191L44.3037 54.427H50.8116H57.3196V50.4111C57.3196 48.1889 57.272 46.3318 57.2085 46.2841C57.1608 46.2207 49.2402 46.1889 39.637 46.2048L22.1609 46.2524L22.1132 50.3318Z" fill="white"/>
<path d="M80.6906 46.1362C83.2302 46.7711 85.1668 47.8981 86.9445 49.7393C87.8652 50.7235 89.2302 52.5171 89.3414 52.9457C89.3731 53.0727 85.0239 55.9933 82.389 57.6282C82.2937 57.6917 81.9128 57.279 81.4842 56.6441C80.1985 54.7711 78.8493 53.9616 76.7858 53.8187C73.754 53.6124 71.8017 55.1997 71.8175 57.8505C71.8175 58.6282 71.9287 59.0886 72.2461 59.7235C72.9128 61.1044 74.1509 61.9298 78.0398 63.6124C85.1985 66.6917 88.262 68.7235 90.1668 71.6124C92.2937 74.8346 92.7699 79.9774 91.3255 83.8028C89.7382 87.9616 85.8017 90.787 80.262 91.7235C78.5477 92.0251 74.4842 91.9774 72.6429 91.6441C68.6271 90.9298 64.8175 88.9457 62.4683 86.3425C61.5477 85.3266 59.7541 82.6759 59.8652 82.4854C59.9128 82.4219 60.3255 82.1679 60.7858 81.8981C61.2302 81.6441 62.9128 80.6759 64.5001 79.7552L67.3731 78.0885L67.9763 78.9774C68.8175 80.2631 70.6588 82.0251 71.7699 82.6124C74.9604 84.2949 79.3414 84.0568 81.5001 82.1203C82.4207 81.279 82.8017 80.406 82.8017 79.1203C82.8017 77.9616 82.6588 77.4536 82.0556 76.5806C81.2779 75.4695 79.6906 74.533 75.1826 72.5806C70.0239 70.3584 67.8017 68.9774 65.7699 66.787C64.5953 65.5171 63.4842 63.4854 63.0239 61.787C62.6429 60.3743 62.5477 56.8346 62.8493 55.406C63.9128 50.4219 67.6747 46.9457 73.1033 45.9139C74.8652 45.5806 78.9604 45.7076 80.6906 46.1362Z" fill="white"/>
</svg>

<svg width="100" height="100" fill="none" xmlns="http://www.w3.org/2000/svg"><path d="M0 50v50h100V0H0v50Z" fill="#007ACC"/><path d="m22.113 50.332-.032 4.095h13.016v36.984h9.207V54.427H57.32v-4.016c0-2.222-.048-4.08-.111-4.127-.048-.063-7.969-.095-17.572-.08l-17.476.048-.048 4.08Zm58.577-4.196c2.54.635 4.477 1.762 6.255 3.603.92.985 2.285 2.778 2.396 3.207.032.127-4.317 3.047-6.952 4.682-.095.064-.476-.349-.905-.984-1.285-1.873-2.635-2.682-4.698-2.825-3.032-.207-4.984 1.38-4.969 4.031 0 .778.112 1.239.43 1.873.666 1.381 1.904 2.207 5.793 3.89 7.158 3.079 10.222 5.11 12.127 8 2.127 3.222 2.603 8.364 1.159 12.19-1.588 4.159-5.524 6.984-11.064 7.92-1.714.302-5.778.254-7.62-.079-4.015-.714-7.825-2.698-10.174-5.302-.92-1.015-2.714-3.666-2.603-3.857.048-.063.46-.317.92-.587a914.44 914.44 0 0 0 3.715-2.143l2.873-1.666.603.888c.841 1.286 2.683 3.048 3.794 3.635 3.19 1.683 7.571 1.445 9.73-.492.92-.841 1.302-1.714 1.302-3 0-1.158-.143-1.666-.746-2.54-.778-1.11-2.365-2.047-6.873-4-5.16-2.222-7.381-3.603-9.413-5.793-1.175-1.27-2.286-3.302-2.746-5-.381-1.413-.476-4.952-.175-6.381 1.064-4.984 4.826-8.46 10.254-9.492 1.762-.333 5.857-.206 7.588.222Z" fill="#fff"/></svg>
